src/assets/TireIcon.svg

<svg width="24" height="28" viewBox="0 0 24 28" fill="none" xmlns="http://www.w3.org/2000/svg">
<path d="M10.0891 23.6615C8.88865 26.1575 7.385 27.3585 6 27.3585H17.8287C21.237 27.3585 24.0001 21.3889 24.0001 14.0252C24.0001 6.66142 21.237 0.691895 17.8287 0.691895H6C7.385 0.691895 8.88865 1.89297 10.0891 4.38889C11.2577 6.81894 12 10.2253 12 14.0252C12 17.8252 11.2577 21.2315 10.0891 23.6615Z" fill="#EBEBEB"/>
<path fill-rule="evenodd" clip-rule="evenodd" d="M1.91097 4.38889C0.742266 6.81894 0 10.2253 0 14.0252C0 17.8252 0.742266 21.2315 1.91097 23.6615C3.11134 26.1575 4.61499 27.3585 5.99999 27.3585C7.38499 27.3585 8.88863 26.1575 10.0891 23.6615C11.2577 21.2315 12 17.8252 12 14.0252C12 10.2253 11.2577 6.81894 10.0891 4.38889C8.88863 1.89297 7.38499 0.691895 5.99999 0.691895C4.61499 0.691895 3.11134 1.89297 1.91097 4.38889ZM3.74999 14.0252C3.74999 18.676 4.75735 22.4463 5.99999 22.4463C7.14738 22.4463 8.09418 19.2319 8.23258 15.0779H6.74999C6.12867 15.0779 5.62499 14.6065 5.62499 14.0252C5.62499 13.4439 6.12867 12.9725 6.74999 12.9725H8.23258C8.09418 8.81858 7.14738 5.60417 5.99999 5.60417C4.75735 5.60417 3.74999 9.3744 3.74999 14.0252Z" fill="#CACACA"/>
</svg>

<svg width="24" height="28" fill="none" xmlns="http://www.w3.org/2000/svg"><path d="M10.09 23.662C8.888 26.157 7.384 27.358 6 27.358h11.829c3.408 0 6.171-5.97 6.171-13.334S21.237.692 17.83.692H6c1.385 0 2.889 1.201 4.09 3.697 1.168 2.43 1.91 5.836 1.91 9.636 0 3.8-.742 7.207-1.91 9.636z" fill="#EBEBEB"/><path fill-rule="evenodd" clip-rule="evenodd" d="M1.911 4.389C.742 6.819 0 10.225 0 14.025c0 3.8.742 7.207 1.911 9.636 1.2 2.496 2.704 3.697 4.089 3.697 1.385 0 2.889-1.2 4.09-3.697 1.168-2.43 1.91-5.836 1.91-9.636 0-3.8-.742-7.206-1.91-9.636C8.888 1.893 7.384.692 6 .692c-1.385 0-2.889 1.201-4.089 3.697zm1.839 9.636c0 4.651 1.007 8.421 2.25 8.421 1.147 0 2.094-3.214 2.233-7.368H6.75c-.621 0-1.125-.471-1.125-1.053 0-.581.504-1.053 1.125-1.053h1.483C8.094 8.82 7.147 5.604 6 5.604c-1.243 0-2.25 3.77-2.25 8.421z" fill="#CACACA"/></svg>
